!! 00000] TT[WS
!!!OTL: Lugouqin shangshou
!!!ARE: Asia, China, Shanxi Wutai
!! Ethnic Group: Han
!! WII, 189 (2)
!!!SCT: J0687
!!!YEM: Copyright 1995, estate of Helmut Schaffrath.
**kern
*ICvox
*Ivox
*M2/4
*k[b-]
*F:
{8cc
8cc
8g
8g
=1
8.cc
16cc
4g
=2
8b-
8b-
8cc
8g
=3
8.f
16e
4c}
=4
{8ff
8b-
8cc
8cc
=5
8g
4b-
8g
=6
8.b-
16g
8d
8c
=7
2B-}
==
!!!AGN: Xiaodiao. Qingge
!!!ONB: ESAC (Essen Associative Code) Database: CHINA
!!!AMT: simple duple
!!!AIN: vox
!!!EED: Helmut Schaffrath
!!!EEV: 1.0
*-
